X: 2
T: Kate and Rose's
M: C|
L: 1/8
K: Dm
E | \
"Dm"FD ~D2 AD ~D2 |dDDd dcAG |\
[1,3 FD ~D2 AGFD |"C"EDCD "A"EFGE :|\
[3,4 "F"F2 cF dFcF |"C"E3 E EDC :|
K: Dmix
|:e | \
"D"fd ~d2 fdad | f3 f fede | "D"fd ~d2 fdad | "C"cBAB "Am"cBAe |
"D"fd ~d2 fdad | f3 f fedB | "C"c2 gc acgc |["." "G"B3 B BAG :|["tran." "G"B3z"E7"z4 |]
%%text The B part works well an octave lower.
% %text 05/22/10


